X:73
T:Jordan Is A Hard Road 
C:
B:American Veteran Fifer #73
M:2/4
L:1/8
Q:1/8=180
K:G
|: B/A/|G/F/G/B/ dd|c/B/c/e/ d2|G/F/G/B/ dd/d/|c/A/ z z B/A/|G/F/G/B/ dd|c/B/c/e/ d (3d/e/f/|gg/d/ d/f/d/c/|B/G/zz :|
|: (3d/e/f/|gg f>d|g/g/g/g/ f<d|gg/g/ f/g/a/g/|f/d/ zz (3d/e/f/|g/a/g/g/ fd/d/|e/f/e/B/ dB/B/|c/d/c/A/ B/e/d/c/|B/G/ zz :|
